Hatter-kde/actions/24/text_line_spacing.svg

<?xml version="1.0" encoding="UTF-8"?>
<svg viewBox="0 0 24 24" xmlns="http://www.w3.org/2000/svg">
 <defs id="defs3051">
  <style id="current-color-scheme" type="text/css">.ColorScheme-Text {
        color:#363636;
      }
      .ColorScheme-Highlight {
        color:#3daee9;
      }</style>
 </defs>
 <path class="ColorScheme-Text" d="m4 4v1h9v-1h-9zm0 2v1h8v-1h-8zm0 3v1h9v-1h-9zm0 2v1h4v-1h-4zm0 3v1h9v-1h-9zm0 2v1h6v-1h-6zm7 1v1h2v-1h-2z" fill="currentColor"/>
 <path class="ColorScheme-Highlight" d="m17 4-3 4h2v1 5 2h-2l3 4 3-4h-2v-3-1-3-1h2l-3-4z" fill="currentColor"/>
</svg>

<svg xmlns="http://www.w3.org/2000/svg" viewBox="0 0 24 24">
  <defs id="defs3051">
    <style type="text/css" id="current-color-scheme">
      .ColorScheme-Text {
        color:#363636;
      }
      .ColorScheme-Highlight {
        color:#3daee9;
      }
      </style>
  </defs>
 <path 
     style="fill:currentColor;fill-opacity:1;stroke:none" 
     d="M 4 4 L 4 5 L 13 5 L 13 4 L 4 4 z M 4 6 L 4 7 L 12 7 L 12 6 L 4 6 z M 4 9 L 4 10 L 13 10 L 13 9 L 4 9 z M 4 11 L 4 12 L 8 12 L 8 11 L 4 11 z M 4 14 L 4 15 L 13 15 L 13 14 L 4 14 z M 4 16 L 4 17 L 10 17 L 10 16 L 4 16 z M 11 17 L 11 18 L 13 18 L 13 17 L 11 17 z "
     class="ColorScheme-Text"
     />
 <path 
     style="fill:currentColor;fill-opacity:1;stroke:none" 
     d="M 17 4 L 14 8 L 16 8 L 16 9 L 16 14 L 16 16 L 14 16 L 17 20 L 20 16 L 18 16 L 18 13 L 18 12 L 18 9 L 18 8 L 20 8 L 17 4 z "
     class="ColorScheme-Highlight"
     />
</svg>
